X: 1
T:Cottage Hornpipe
M:2/2
L:1/8
S:Armitt MS
K:A major
ed|cdBcA2fe|decd B2ed|cefg aefd|cABGE2ed|cdBc A2fe|decdB2ed|cefg gefd|c2
A2A2:||(B/2c/2d/2) e2 f efec|agfe|dcBA|cAeA fAeA|B2B2B2E2|AcBd cedf|eagb
 a2A2|
fedc ceEGA2A2A2:||
